X: 122
T: the Royal Sportsman
B: 204 Favourite Country Dances
N: Published by Straight & Skillern, London ca.1775
F: http://imslp.org/wiki/204_Favourite_Country_Dances_(Various) p.61 #122
Z: 2014 John Chambers <jc:trillian.mit.edu>
M: C
L: 1/8
K: G
% - - - - - - - - - - - - - - - - - - - - - - - - -
|:\
G/G/G GB d=fed | (ec)(cA) BGFD |\
G/G/G GB d=fed | e/e/e ec d2D2 :|
|:\
d/d/d dd (ec)(cA) | d/d/d ae f2e2 |\
gdec =fddc | BGAB G/G/G G2 :|
% - - - - - - - - - - - - - - - - - - - - - - - - -
%%begintext align
%% Cast off 2 Cu. cast up again cross over
%% 2 Cu. lead up set corners lead outsides
%%endtext

%%sep 1 1 500
%%sep 1 1 500
